X:1
T:Framingham
%%score 1 2 3 4
L:1/8
M:3/2
K:C
V:1 treble nm="Soprano" snm="S."
V:2 alto nm="Alto" snm="A."
V:3 treble-8 nm="Tenor" snm="T."
V:4 bass nm="Bass" snm="B."
V:1
 z8 A4 | (c3 d) c4 B4 | (A3 B) A4 B4 | c8 B4 | (A4 B4) B4 | (c3 e d2 c2) B4 | c8 c4 | e8 (d2 B2) | %8
 (c3 d e4) e4 | (e2 c2 d2 B2) (c2 A2) | (B3 A G3 A) B4 | (A3 B A3) (B c2 e2) | (e2 c2 B2 A2) ^G4 | %13
[M:2/2] A6 z2 | z8 | z4 z2 A2 | e2 e2 d2 d2 | (ed)(cB) c2 c2 | B2 B2 c2 A2 | B8 | z4 z2 B2 | %21
 c2 (ec) B2 B2 | A2 A2 B2 (cd) | e2 e2 (ed)(cB) | (c3 B A2) A2 | e2 e2 e2 (ed) | c2 d2 e2 d2 | %27
 c4 B4 | A4 ^G4 | A6 z2 | z8 | z4 z2 A2 | e2 e2 d2 d2 | (ed)(cB) c2 c2 | B2 B2 c2 A2 | B8 | %36
 z4 z2 B2 | c2 (ec) B2 B2 | A2 A2 B2 (cd) | e2 e2 (ed)(cB) | (c3 B A2) A2 | e2 e2 e2 (ed) | %42
 c2 d2 e2 d2 | c4 B4 | A4 ^G4 | A8 |] %46
V:2
 z8 E4 | E8 E4 | E8 G4 | G8 G4 | (E3 F) G4 G4 | (E4 A4) ^G4 | A8 A4 | (A4 E4) G4 | (G4 A4) G4 | %9
 (E4 F4) E4 | E8 G4 | (A3 G F4) E4 | (D2 E2 F4) E4 |[M:2/2] E6 z2 | z8 | z8 | z4 z2 (EF) | %17
 G2 (GF) E2 (EF) | G2 G2 A2 (EF) | G2 G2 G2 (GF) | E6 F2 | E2 F2 G2 G2 | A4 G4 | E2 E2 E2 E2 | %24
 (E6 F2 | G6) (GF) | E2 D2 C2 F2 | E2 (EF) G2 G2 | F2 F2 E2 E2 | E6 z2 | z8 | z8 | z4 z2 (EF) | %33
 G2 (GF) E2 (EF) | G2 G2 A2 (EF) | G2 G2 G2 (GF) | E6 F2 | E2 F2 G2 G2 | A4 G4 | E2 E2 E2 E2 | %40
 (E6 F2 | G6) (GF) | E2 D2 C2 F2 | E2 (EF) G2 G2 | F2 F2 E2 E2 | E8 |] %46
V:3
 z8 E4 | (A3 B) A4 B4 | (c3 d) c4 d4 | e8 e4 | (c4 d4) e4 | (g4 f4) e4 | e8 e4 | c8 d4 | %8
 (e3 d c4) B4 | (c4 d4) c4 | B8 e4 | (c4 d4) e4 | (f2 e2 d2 c2) B4 |[M:2/2] A6 z2 | z4 z2 A2 | %15
 e2 e2 e2 f2 | e2 c2 d2 B2 | (cd)(ef) g2 (gf) | e8 | z4 e2 (ed) | (c2 B2 c2) d2 | e2 (dc) d2 (ed) | %22
 c2 (df) e2 E2 | A6 E2 | (AB)(cd e2 dc) | B6 B2 | c2 B2 c2 d2 | e2 c2 d2 (ed) | c2 (dc) B2 B2 | %29
 A6 z2 | z4 z2 A2 | e2 e2 e2 f2 | e2 c2 d2 B2 | (cd)(ef) g2 (gf) | e8 | z4 e2 (ed) | %36
 (c2 B2 c2) d2 | e2 (dc) d2 (ed) | c2 (df) e2 E2 | A6 E2 | (AB)(cd e2 dc) | B6 B2 | c2 B2 c2 d2 | %43
 e2 c2 d2 (ed) | c2 (dc) B2 B2 | A8 |] %46
V:4
 z8 A,,4 | A,,8 E,4 | [A,,A,]8 [G,,G,]4 | C,8 E,4 | (A,4 G,4) E,4 | (C,4 D,4) E,4 | %6
 [A,,A,]8 [A,,A,]4 | [A,,A,]8 [G,,G,]4 | ([C,C]3 [B,,B,] [A,,A,]4) E,4 | (C,4 B,,4) A,,4 | %10
 E,8 E,4 | (F,3 E, D,4) C,4 | D,8 E,4 |[M:2/2] A,,6 A,,2 | E,2 E,2 E,2 F,2 | E,2 C,2 C,2 D,2 | %16
 (C,D,)(E,F,) G,2 G,,2 | C,6 (C,D,) | E,2 E,2 [A,,A,]2 A,,2 | E,6 E,2 | A,2 ^G,2 A,2 B,2 | %21
 C2 (B,A,) G,2 E,2 | F,2 D,2 (E,D,)(C,B,,) | A,,6 A,,2 | A,,2 (A,,>B,,) C,2 D,2 | E,6 E,2 | %26
 [A,,A,]2 [^G,,^G,]2 [A,,A,]2 [B,,B,]2 | [C,C]2 C,2 G,2 E,2 | F,2 D,2 E,2 E,2 | A,,6 A,,2 | %30
 E,2 E,2 E,2 F,2 | E,2 C,2 C,2 D,2 | (C,D,)(E,F,) G,2 G,,2 | C,6 (C,D,) | E,2 E,2 [A,,A,]2 A,,2 | %35
 E,6 E,2 | A,2 ^G,2 A,2 B,2 | C2 (B,A,) G,2 E,2 | F,2 D,2 (E,D,)(C,B,,) | A,,6 A,,2 | %40
 A,,2 (A,,>B,,) C,2 D,2 | E,6 E,2 | [A,,A,]2 [^G,,^G,]2 [A,,A,]2 [B,,B,]2 | [C,C]2 C,2 G,2 E,2 | %44
 F,2 D,2 E,2 E,2 | A,,8 |] %46

